assets/images/donate/banks/boa.svg

<svg width="401" height="40" viewBox="0 0 401 40" fill="none" xmlns="http://www.w3.org/2000/svg">
<path d="M376.493 5.45657C375.447 5.75101 374.371 6.05367 373.391 6.38003C367.078 3.62471 362.181 2.28459 359.796 1.63167C359.348 1.50894 358.988 1.41049 358.724 1.33148C359.867 0.977318 361.373 0.567327 362.43 0.279701L362.432 0.279231C362.863 0.161685 363.221 0.0643744 363.446 0C368.335 1.22053 373.78 3.16227 378.113 4.99306C377.594 5.14672 377.047 5.30061 376.493 5.45657Z" fill="#E31837"/>
<path d="M349.448 29.5387C348.283 28.72 347.12 27.9031 346.002 27.2399C361.946 14.7573 375.446 9.37587 383.335 7.37864C385.284 8.32552 386.834 9.12276 388.552 10.0068L388.835 10.1526C375.669 14.258 363.669 21.5257 351.502 30.957C350.822 30.5045 350.134 30.0211 349.448 29.5387Z" fill="#E31837"/>
<path d="M368.502 8.09986C366.391 6.93481 359.058 4.21636 354.002 3.05132C352.502 3.6061 350.391 4.43828 348.947 5.04854L349.065 5.08063C351.057 5.62271 357.732 7.43839 363.447 10.319C364.88 9.62981 366.872 8.78864 368.306 8.18277L368.309 8.18143L368.502 8.09986Z" fill="#E31837"/>
<path d="M400.501 16.8099C391.501 20.3051 375.112 30.0138 363.445 39.9999C361.715 38.5602 359.86 37.162 358.061 35.8054L357.822 35.6253C357.621 35.4741 357.422 35.3234 357.223 35.1733C369.334 25.5755 382.89 17.0873 394.501 13.2593C396.945 14.6462 399.112 15.9223 400.501 16.8099Z" fill="#E31837"/>
<path fill-rule="evenodd" clip-rule="evenodd" d="M371.889 39.2787L371.334 38.4466H371.001V39.2787H370.778V37.448H371.612C371.778 37.448 371.945 37.448 372.056 37.5589C372.223 37.6144 372.278 37.7808 372.278 37.9473C372.278 38.2801 372.001 38.4466 371.667 38.4466L372.223 39.2787H371.889ZM371.36 38.2248L371.372 38.225L371.4 38.2255L371.44 38.2264C371.69 38.2325 371.945 38.2387 371.945 37.9473C371.945 37.7254 371.723 37.6699 371.501 37.6699H371.001V38.2247H371.334L371.36 38.2248Z" fill="#E31837"/>
<path fill-rule="evenodd" clip-rule="evenodd" d="M369.722 38.3357C369.722 37.4481 370.444 36.7268 371.388 36.7268C372.333 36.7268 373.055 37.4481 373.055 38.3357C373.055 39.2234 372.333 40.0001 371.388 40.0001C370.444 40.0001 369.722 39.2789 369.722 38.3357ZM370.055 38.3357C370.055 39.0569 370.666 39.6672 371.444 39.6672C372.166 39.6672 372.777 39.1124 372.777 38.3357C372.777 37.6145 372.166 37.0597 371.444 37.0597C370.611 37.0597 370.055 37.67 370.055 38.3357Z" fill="#E31837"/>
<path d="M343.668 7.37772C337.168 10.3736 330.335 14.479 326.612 16.8645C327.129 17.1008 327.645 17.3205 328.19 17.5525C329.053 17.9197 329.989 18.3178 331.112 18.8618C339.335 13.3139 345.779 9.92973 348.335 8.82016C346.96 8.32084 345.647 7.94636 344.608 7.6499C344.262 7.55108 343.946 7.46093 343.668 7.37772Z" fill="#012169"/>
<path d="M358.112 12.8702C357.07 12.3663 355.966 11.8828 354.936 11.4319C354.266 11.1381 353.627 10.8582 353.057 10.5955C348.668 12.7592 342.946 16.0324 335.724 21.1919C336.681 21.704 337.68 22.2791 338.721 22.8784L338.723 22.8793L338.726 22.8809L338.733 22.8849L338.734 22.8858C339.381 23.2581 340.044 23.6397 340.724 24.0214C346.279 19.9159 351.89 16.0324 358.112 12.8702Z" fill="#012169"/>
<path fill-rule="evenodd" clip-rule="evenodd" d="M16.0011 31.5108C16.0011 34.784 13.89 37.1141 9.38998 37.1141H0.556641V16.8645H8.83442C13.3344 16.8645 15.4455 19.1946 15.4455 22.0795C15.4455 24.3541 14.2789 25.9075 11.7233 26.5177C14.6122 27.0725 16.0011 28.8478 16.0011 31.5108ZM11.0566 31.0115C11.0566 29.3471 9.88997 28.515 8.22331 28.515V28.4595H5.33442V33.508H8.22331C9.94553 33.508 11.0566 32.7868 11.0566 31.0115ZM10.5011 22.8007C10.5011 21.1363 9.33442 20.4151 7.66775 20.4151H5.33442V25.1863H7.66775C9.38998 25.1863 10.5011 24.465 10.5011 22.8007Z" fill="#012169"/>
<path fill-rule="evenodd" clip-rule="evenodd" d="M21.3344 37.1141L28.9455 16.809H33.9455L41.6122 37.1141H36.5011L35.1122 32.8978H27.7789L26.39 37.1141H21.3344ZM33.8344 29.1807L31.4455 21.6911L28.9455 29.1807H33.8344Z" fill="#012169"/>
<path d="M53.6678 16.809L62.3344 30.4012V16.809H66.9455V37.1141H61.7789L53.1122 23.5774V37.1141H48.5011V16.809H53.6678Z" fill="#012169"/>
<path d="M81.5566 26.7951L88.2233 37.1141H94.0011L86.7233 26.5732L93.39 16.809H87.89L81.5566 26.5732V16.809H76.6122V37.1141H81.5566V26.7951Z" fill="#012169"/>
<path fill-rule="evenodd" clip-rule="evenodd" d="M117.112 16.3652C110.501 16.3652 106.334 21.0254 106.279 26.9616C106.334 32.8978 110.501 37.558 117.112 37.558C123.723 37.558 127.89 32.8978 127.946 26.9616C127.89 21.0254 123.723 16.3652 117.112 16.3652ZM117.112 33.508C113.946 33.508 111.501 31.0115 111.501 26.9616C111.501 22.9116 113.946 20.4151 117.112 20.4151C120.279 20.4151 122.723 22.9116 122.723 26.9616C122.723 31.0115 120.279 33.508 117.112 33.508Z" fill="#012169"/>
<path d="M148.334 16.809L147.446 20.6925H139.668V25.2417H146.112V29.1252H139.668V37.1141H134.723V16.809H148.334Z" fill="#012169"/>
<path fill-rule="evenodd" clip-rule="evenodd" d="M165.223 32.8978L163.834 37.1141H158.779L166.39 16.809H171.39L179.057 37.1141H173.946L172.557 32.8978H165.223ZM171.279 29.1807L168.89 21.6911L166.39 29.1807H171.279Z" fill="#012169"/>
<path d="M197.334 27.7937L202.612 16.809H208.39L208.446 37.1141H203.834V23.5219L197.279 37.1141L190.723 23.5219V37.1141H186.279V16.809H192.057L197.334 27.7937Z" fill="#012169"/>
<path d="M232.001 16.809L231.112 20.6925H222.946V24.9089H230.001V28.6814H222.946V33.2306H231.89V37.1141H218.001V16.809H232.001Z" fill="#012169"/>
<path fill-rule="evenodd" clip-rule="evenodd" d="M251.057 28.515L256.112 37.1141H250.723L246.279 29.1807H244.946V37.1696H240.112V16.8645H247.946C252.946 16.8645 255.168 19.3055 255.168 22.9671C255.168 25.7965 253.834 27.7383 251.057 28.515ZM250.112 23.189C250.112 21.4692 249.057 20.5815 247.001 20.5815H244.89V25.7965H247.001C249.057 25.7965 250.112 24.9089 250.112 23.189Z" fill="#012169"/>
<path d="M292.723 31.7162L292.779 31.6772H292.723V31.7162Z" fill="#012169"/>
<path d="M292.723 31.7162V36.171C290.946 37.1141 289.001 37.5025 286.723 37.5025C279.89 37.5025 275.779 32.8978 275.723 26.9061C275.779 20.9699 280.001 16.3097 286.723 16.3097C288.89 16.3097 290.834 16.698 292.501 17.6412V22.2459C290.668 20.9144 289.001 20.4706 287.334 20.4706C283.668 20.4706 281.057 23.0781 281.057 26.9616C281.057 30.8451 283.723 33.4526 287.501 33.4526C289.206 33.4526 290.857 33.0174 292.723 31.7162Z" fill="#012169"/>
<path fill-rule="evenodd" clip-rule="evenodd" d="M304.723 32.8978L303.334 37.1141H298.279L305.89 16.809H310.89L318.557 37.1141H313.446L312.057 32.8978H304.723ZM310.779 29.1807L308.39 21.6911L305.89 29.1807H310.779Z" fill="#012169"/>
<path d="M268.446 37.1141H263.501V16.8645H268.446V37.1141Z" fill="#012169"/>
</svg>

<svg width="401" height="40" fill="none" xmlns="http://www.w3.org/2000/svg"><path d="M376.493 5.457c-1.046.294-2.122.597-3.102.923-6.313-2.755-11.21-4.095-13.595-4.748-.448-.123-.808-.222-1.072-.3A122.02 122.02 0 0 1 362.43.28h.002c.431-.118.789-.216 1.014-.28 4.889 1.22 10.334 3.162 14.667 4.993-.519.154-1.066.308-1.62.464zm-27.045 24.082c-1.165-.819-2.328-1.636-3.446-2.3 15.944-12.482 29.444-17.863 37.333-19.86 1.949.947 3.499 1.744 5.217 2.628l.283.146c-13.166 4.105-25.166 11.373-37.333 20.804a97.986 97.986 0 0 1-2.054-1.418zm19.054-21.44c-2.111-1.164-9.444-3.883-14.5-5.048-1.5.555-3.611 1.387-5.055 1.998l.118.032c1.992.542 8.667 2.357 14.382 5.238 1.433-.69 3.425-1.53 4.859-2.136l.003-.002.193-.081zm31.999 8.71c-9 3.496-25.389 13.205-37.056 23.19-1.73-1.439-3.585-2.837-5.384-4.194l-.239-.18c-.201-.15-.4-.302-.599-.452 12.111-9.598 25.667-18.086 37.278-21.914 2.444 1.387 4.611 2.663 6 3.55z" fill="#E31837"/><path fill-rule="evenodd" clip-rule="evenodd" d="M371.889 39.279l-.555-.832h-.333v.832h-.223v-1.831h.834c.166 0 .333 0 .444.11.167.056.222.223.222.39 0 .332-.277.499-.611.499l.556.832h-.334zm-.529-1.054h.04l.04.001c.25.007.505.013.505-.279 0-.222-.222-.277-.444-.277h-.5v.555H371.36z" fill="#E31837"/><path fill-rule="evenodd" clip-rule="evenodd" d="M369.722 38.336c0-.888.722-1.61 1.666-1.61.945 0 1.667.722 1.667 1.61A1.67 1.67 0 0 1 371.388 40a1.635 1.635 0 0 1-1.666-1.664zm.333 0c0 .72.611 1.331 1.389 1.331.722 0 1.333-.555 1.333-1.331 0-.721-.611-1.276-1.333-1.276-.833 0-1.389.61-1.389 1.276z" fill="#E31837"/><path d="M343.668 7.378c-6.5 2.996-13.333 7.101-17.056 9.486.517.237 1.033.456 1.578.688.863.368 1.799.766 2.922 1.31 8.223-5.548 14.667-8.932 17.223-10.042-1.375-.5-2.688-.874-3.727-1.17-.346-.099-.662-.19-.94-.272zm14.444 5.492a93.517 93.517 0 0 0-3.176-1.438c-.67-.294-1.309-.574-1.879-.837-4.389 2.164-10.111 5.437-17.333 10.597.957.512 1.956 1.087 2.997 1.686l.002.001.003.002.007.004h.001c.647.373 1.31.755 1.99 1.136 5.555-4.105 11.166-7.989 17.388-11.15z" fill="#012169"/><path fill-rule="evenodd" clip-rule="evenodd" d="M16.001 31.51c0 3.274-2.111 5.604-6.611 5.604H.557v-20.25h8.277c4.5 0 6.611 2.33 6.611 5.215 0 2.275-1.166 3.828-3.722 4.439 2.89.555 4.278 2.33 4.278 4.993zm-4.944-.498c0-1.665-1.167-2.497-2.834-2.497v-.056H5.334v5.049h2.89c1.722 0 2.833-.721 2.833-2.497zM10.5 22.8c0-1.665-1.167-2.386-2.833-2.386H5.334v4.771h2.334c1.722 0 2.833-.721 2.833-2.385zm10.833 14.313l7.611-20.305h5l7.667 20.305h-5.11l-1.39-4.216H27.78l-1.389 4.216h-5.056zm12.5-7.933l-2.389-7.49-2.5 7.49h4.89z" fill="#012169"/><path d="M53.668 16.809l8.666 13.592V16.81h4.611v20.305H61.78l-8.667-13.537v13.537h-4.61V16.81h5.166zm27.889 9.986l6.666 10.32h5.778l-7.278-10.542 6.667-9.764h-5.5l-6.333 9.764V16.81h-4.945v20.305h4.945V26.795z" fill="#012169"/><path fill-rule="evenodd" clip-rule="evenodd" d="M117.112 16.365c-6.611 0-10.778 4.66-10.833 10.597.055 5.936 4.222 10.596 10.833 10.596s10.778-4.66 10.834-10.596c-.056-5.937-4.223-10.597-10.834-10.597zm0 17.143c-3.166 0-5.611-2.497-5.611-6.546 0-4.05 2.445-6.547 5.611-6.547 3.167 0 5.611 2.497 5.611 6.547s-2.444 6.546-5.611 6.546z" fill="#012169"/><path d="M148.334 16.809l-.888 3.883h-7.778v4.55h6.444v3.883h-6.444v7.99h-4.945V16.808h13.611z" fill="#012169"/><path fill-rule="evenodd" clip-rule="evenodd" d="M165.223 32.898l-1.389 4.216h-5.055l7.611-20.305h5l7.667 20.305h-5.111l-1.389-4.216h-7.334zm6.056-3.717l-2.389-7.49-2.5 7.49h4.889z" fill="#012169"/><path d="M197.334 27.794l5.278-10.985h5.778l.056 20.305h-4.612V23.522l-6.555 13.592-6.556-13.592v13.592h-4.444V16.81h5.778l5.277 10.985zm34.667-10.985l-.889 3.883h-8.166v4.217h7.055v3.772h-7.055v4.55h8.944v3.883h-13.889V16.81h14z" fill="#012169"/><path fill-rule="evenodd" clip-rule="evenodd" d="M251.057 28.515l5.055 8.6h-5.389l-4.444-7.934h-1.333v7.989h-4.834V16.864h7.834c5 0 7.222 2.441 7.222 6.103 0 2.83-1.334 4.771-4.111 5.548zm-.945-5.326c0-1.72-1.055-2.608-3.111-2.608h-2.111v5.216h2.111c2.056 0 3.111-.888 3.111-2.608z" fill="#012169"/><path d="M292.723 31.716l.056-.039h-.056v.04zm0 0v4.455c-1.777.943-3.722 1.331-6 1.331-6.833 0-10.944-4.604-11-10.596.056-5.936 4.278-10.596 11-10.596 2.167 0 4.111.388 5.778 1.331v4.605c-1.833-1.332-3.5-1.775-5.167-1.775-3.666 0-6.277 2.607-6.277 6.49 0 3.884 2.666 6.492 6.444 6.492 1.705 0 3.356-.436 5.222-1.737z" fill="#012169"/><path fill-rule="evenodd" clip-rule="evenodd" d="M304.723 32.898l-1.389 4.216h-5.055l7.611-20.305h5l7.667 20.305h-5.111l-1.389-4.216h-7.334zm6.056-3.717l-2.389-7.49-2.5 7.49h4.889z" fill="#012169"/><path d="M268.446 37.114h-4.945v-20.25h4.945v20.25z" fill="#012169"/></svg>
